X: 110701
T: Caitlin na Ubhall Gort
T: Katie in the Orchard
S: "The Ted Furey Collection of Irish Traditional Tunes"
Z: B.Black
L: 1/8
M: 6/8
R: jig
K: D
A/G/ | FAD GED | FAD FED | GBG FAF | EFE EFG |
FAD FED | FAD FED | dcB AFA | DED D2 :|
A | d2 e f2 d | edB BAF | ABA ABd | efd edB |
d2 e f2 d | edB BAF | dcB AFA | DED D2 :|
A | d2 c/d/ efg | fed cBA | BdB AFD | EFE E2 A |
d2 c/d/ efg | fed cBA | BdB AFA | DED D2 :|
